X:85
T:Woman of the House, The
R:reel
D:Conal O'Grada: The Top of Coom
Z:id:hn-reel-250
M:C|
K:G
DBBA ~B3A|GB~B2 eBdB|BAGB A2 (3Bcd|eB~B2 eBdB|
DBBA ~B3A|GA (3Bcd eBdB|GABG A2GA|BGAG EG~G2:|
|:~f3d eB~B2|eBgB eB~B2|~f3d edBd|eaag ~a3g|
~f3d ed (3Bcd|~g3e dBBA|GABG A2GA|BGAG EG~G2:|
